icon-themes/sifr_svg/cmd/sc_choosecontrols.svg

<svg viewBox="0 0 16 16" xmlns="http://www.w3.org/2000/svg"><path d="m8.5 1c-1.932997 0-3.5 1.5670034-3.5 3.5s1.567003 3.5 3.5 3.5c.683325-.000967 1.351421-.201939 1.921875-.578125l1.578125 1.578125h1v-1l-1.578125-1.578125c.376186-.5704541.577158-1.2385502.578125-1.921875 0-1.9329966-1.567003-3.5-3.5-3.5zm0 1c1.380712 0 2.5 1.1192881 2.5 2.5s-1.119288 2.5-2.5 2.5-2.5-1.1192881-2.5-2.5 1.119288-2.5 2.5-2.5zm-6.96875 2c-.28913 0-.53125.24205-.53125.53125v9.9375c0 .2985.23264.53125.53125.53125h11.8125c.2986 0 .53125-.23265.53125-.53125l1.125-4.9160156c0-.2891-.24212-.53125-.53125-.53125h-.46875v.9785156h-2.414062l-.978516-.9785156h-5.732422l-.875 3.4785156c0 .277-.223.5-.5.5s-.5-.223-.5-.5v-4.9960938c0-.277.223-.4999998.5-.5h1.265625c-.1468834-.2184566-.2673097-.4509846-.3730469-.6894531-.0313297-.0702633-.0562163-.1427705-.0839843-.2148437-.067389-.1758186-.1231194-.3542765-.1679688-.5371094-.0217249-.0883663-.0441742-.1753463-.0605469-.265625-.0476684-.2621427-.0796618-.5279676-.0800781-.796875.0011241-.1671176.0115569-.3340429.03125-.5zm11.435547 0c.02035.1659206.031433.332846.033203.5v.0019531c-.000001.0013042.000002.0026022 0 .0039063-.000927.5954856-.130251 1.1783321-.357422 1.7226562l.773438.7734375c.527277-.0013449 1.055007-.0019531 1.583984-.0019531-.000746-.6923982 0-1.3329492 0-2 .000226-.4887363-.511264-1.0002262-1-1-.356549.01132-.652113 0-1.033203 0z" fill="#555753"/></svg>

<svg xmlns="http://www.w3.org/2000/svg" viewBox="0 0 16 16">
  <path
     style="fill:#555753"
     d="M 8.5 1 C 6.567003 1 5 2.5670034 5 4.5 C 5 6.4329966 6.567003 8 8.5 8 C 9.183325 7.999033 9.851421 7.798061 10.421875 7.421875 L 12 9 L 13 9 L 13 8 L 11.421875 6.421875 C 11.798061 5.8514209 11.999033 5.1833248 12 4.5 C 12 2.5670034 10.432997 1 8.5 1 z M 8.5 2 C 9.880712 2 11 3.1192881 11 4.5 C 11 5.8807119 9.880712 7 8.5 7 C 7.119288 7 6 5.8807119 6 4.5 C 6 3.1192881 7.119288 2 8.5 2 z M 1.53125 4 C 1.24212 4 1 4.24205 1 4.53125 L 1 14.46875 C 1 14.76725 1.23264 15 1.53125 15 L 13.34375 15 C 13.64235 15 13.875 14.76735 13.875 14.46875 L 15 9.5527344 C 15 9.2636344 14.75788 9.0214844 14.46875 9.0214844 L 14 9.0214844 L 14 10 L 11.585938 10 L 10.607422 9.0214844 L 4.875 9.0214844 L 4 12.5 C 4 12.777 3.777 13 3.5 13 C 3.223 13 3 12.777 3 12.5 L 3 7.5039062 C 3 7.2269062 3.223 7.0039064 3.5 7.0039062 L 4.765625 7.0039062 C 4.6187416 6.7854496 4.4983153 6.5529216 4.3925781 6.3144531 C 4.3612484 6.2441898 4.3363618 6.1716826 4.3085938 6.0996094 C 4.2412048 5.9237908 4.1854744 5.7453329 4.140625 5.5625 C 4.1189001 5.4741337 4.0964508 5.3871537 4.0800781 5.296875 C 4.0324097 5.0347323 4.0004163 4.7689074 4 4.5 C 4.0011241 4.3328824 4.0115569 4.1659571 4.03125 4 L 1.53125 4 z M 12.966797 4 C 12.987147 4.1659206 12.99823 4.332846 13 4.5 L 13 4.5019531 C 12.999999 4.5032573 13.000002 4.5045553 13 4.5058594 C 12.999073 5.101345 12.869749 5.6841915 12.642578 6.2285156 L 13.416016 7.0019531 C 13.943293 7.0006082 14.471023 7 15 7 C 14.999254 6.3076018 15 5.6670508 15 5 C 15.000226 4.5112637 14.488736 3.9997738 14 4 C 13.643451 4.01132 13.347887 4 12.966797 4 z "
     />
</svg>
